assets/Post office/Flat/post_office_flat.svg

<svg width="32" height="32" viewBox="0 0 32 32" fill="none" xmlns="http://www.w3.org/2000/svg">
<path d="M3 11H29V30H19.0055L16.0048 28.8029L13.004 30H3V11Z" fill="#9B9B9B"/>
<path d="M2 11C2 10.45 2.45 10 3 10H29C29.55 10 30 10.45 30 11C30 11.55 29.55 12 29 12H3C2.45 12 2 11.55 2 11Z" fill="#F8312F"/>
<path d="M24 30H19.0197L16.0048 29.0011L12.9898 30H8V4.2C8 2.99 8.98 2 10.2 2H21.8C23.01 2 24 2.98 24 4.2V30Z" fill="#D3D3D3"/>
<path d="M18.97 7.04C18.97 6.38 19.23 5.74 19.7 5.27C19.79 5.18 19.72 5.01 19.59 5L17.34 5.01C17.2 5.01 17.13 5.17 17.23 5.27C17.6881 5.72807 17.9562 6.34762 17.9695 6.98979C17.3321 6.36743 16.4645 5.97998 15.5 5.97998C13.57 5.97998 12 7.54998 12 9.48998C12 10.47 12.4 11.36 13.07 11.99H11.51C11.23 11.99 11.01 12.22 11.01 12.49C11.01 12.77 11.24 12.99 11.51 12.99L15.51 12.98C15.68 12.98 15.85 12.97 16.01 12.94C17.5433 12.7309 18.7494 11.5107 18.9672 9.99H18.98L18.9797 9.91347C19.0022 9.77023 19.01 9.6201 19.01 9.46998C19.0084 9.31636 18.9971 9.16483 18.9767 9.01607L18.97 7.04ZM17.9769 9.07398L17.9796 9.87114C17.7918 11.0673 16.757 11.99 15.51 11.99C14.13 11.99 13 10.87 13 9.48998C13 8.10998 14.12 6.97998 15.5 6.97998C16.7418 6.97998 17.7811 7.88684 17.9769 9.07398Z" fill="#FF822D"/>
<path d="M11.5 18H14.51C14.78 18 15 17.78 15.01 17.5V15.49C15.01 15.21 14.78 14.99 14.51 14.99H11.5C11.22 14.99 11 15.22 11 15.49V17.5C11 17.78 11.23 18 11.5 18Z" fill="#83CBFF"/>
<path d="M6.39 21H4.61C4.27 21 4 20.73 4 20.39V15.61C4 15.27 4.27 15 4.61 15H6.39C6.73 15 7 15.27 7 15.61V20.39C6.99 20.73 6.72 21 6.39 21Z" fill="#83CBFF"/>
<path d="M25.61 21H27.39C27.72 21 27.99 20.73 28 20.39V15.61C28 15.27 27.73 15 27.39 15H25.61C25.27 15 25 15.27 25 15.61V20.39C25 20.73 25.27 21 25.61 21Z" fill="#83CBFF"/>
<path d="M14.5 22H11.49C11.22 22 10.99 21.78 10.99 21.5V19.49C10.99 19.22 11.21 18.99 11.49 18.99H14.5C14.77 18.99 15 19.21 15 19.49V21.5C14.99 21.78 14.77 22 14.5 22Z" fill="#83CBFF"/>
<path d="M20.5 22H17.49C17.22 22 16.99 21.78 16.99 21.5V19.49C16.99 19.22 17.21 18.99 17.49 18.99H20.5C20.77 18.99 21 19.21 21 19.49V21.5C20.99 21.78 20.77 22 20.5 22Z" fill="#83CBFF"/>
<path d="M17.5 18H20.51C20.78 18 21 17.78 21.01 17.5V15.49C21.01 15.21 20.78 14.99 20.51 14.99H17.5C17.22 14.99 17 15.22 17 15.49V17.5C17 17.78 17.23 18 17.5 18Z" fill="#83CBFF"/>
<path d="M8 2C7.45 2 7 2.45 7 3C7 3.55 7.45 4 8 4H24C24.55 4 25 3.55 25 3C25 2.45 24.55 2 24 2H8Z" fill="#F8312F"/>
<path d="M10 30V26C10 25.45 9.78 24.95 9.42 24.58C9.05 24.22 8.55 24 8 24C6.9 24 6 24.89 6 26V30H7V29.55C7 29.25 7.25 29 7.55 29H8.45C8.75 29 9 29.25 9 29.55V30H10Z" fill="#F8312F"/>
<path d="M13 30H19.01V25.38C19.01 24.62 18.39 24 17.63 24H14.37C13.61 24 13 24.61 13 25.37V30Z" fill="#1C1C1C"/>
<path d="M7.5 26H8.5C8.78 26 9 25.78 9 25.5C9 25.22 8.78 25 8.5 25H7.5C7.22 25 7 25.22 7 25.5C7 25.78 7.22 26 7.5 26Z" fill="#1C1C1C"/>
</svg>

<svg xmlns="http://www.w3.org/2000/svg" width="32" height="32" fill="none"><path fill="#9B9B9B" d="M3 11h26v19h-9.994l-3.001-1.197L13.004 30H3V11Z"/><path fill="#F8312F" d="M2 11c0-.55.45-1 1-1h26c.55 0 1 .45 1 1s-.45 1-1 1H3c-.55 0-1-.45-1-1Z"/><path fill="#D3D3D3" d="M24 30h-4.98l-3.015-.999L12.99 30H8V4.2C8 2.99 8.98 2 10.2 2h11.6c1.21 0 2.2.98 2.2 2.2V30Z"/><path fill="#FF822D" d="M18.97 7.04c0-.66.26-1.3.73-1.77.09-.09.02-.26-.11-.27l-2.25.01a.15.15 0 0 0-.11.26c.458.458.726 1.078.74 1.72A3.506 3.506 0 0 0 12 9.49c0 .98.4 1.87 1.07 2.5h-1.56c-.28 0-.5.23-.5.5 0 .28.23.5.5.5l4-.01c.17 0 .34-.01.5-.04a3.48 3.48 0 0 0 2.957-2.95h.013v-.077c.022-.143.03-.293.03-.443a3.618 3.618 0 0 0-.033-.454L18.97 7.04Zm-.993 2.034.003.797a2.509 2.509 0 0 1-2.47 2.119A2.51 2.51 0 0 1 13 9.49a2.51 2.51 0 0 1 2.5-2.51c1.242 0 2.281.907 2.477 2.094Z"/><path fill="#83CBFF" d="M11.5 18h3.01c.27 0 .49-.22.5-.5v-2.01c0-.28-.23-.5-.5-.5H11.5c-.28 0-.5.23-.5.5v2.01c0 .28.23.5.5.5ZM6.39 21H4.61c-.34 0-.61-.27-.61-.61v-4.78c0-.34.27-.61.61-.61h1.78c.34 0 .61.27.61.61v4.78c-.01.34-.28.61-.61.61ZM25.61 21h1.78c.33 0 .6-.27.61-.61v-4.78c0-.34-.27-.61-.61-.61h-1.78c-.34 0-.61.27-.61.61v4.78c0 .34.27.61.61.61ZM14.5 22h-3.01c-.27 0-.5-.22-.5-.5v-2.01c0-.27.22-.5.5-.5h3.01c.27 0 .5.22.5.5v2.01c-.01.28-.23.5-.5.5ZM20.5 22h-3.01c-.27 0-.5-.22-.5-.5v-2.01c0-.27.22-.5.5-.5h3.01c.27 0 .5.22.5.5v2.01c-.01.28-.23.5-.5.5ZM17.5 18h3.01c.27 0 .49-.22.5-.5v-2.01c0-.28-.23-.5-.5-.5H17.5c-.28 0-.5.23-.5.5v2.01c0 .28.23.5.5.5Z"/><path fill="#F8312F" d="M8 2c-.55 0-1 .45-1 1s.45 1 1 1h16c.55 0 1-.45 1-1s-.45-1-1-1H8ZM10 30v-4c0-.55-.22-1.05-.58-1.42C9.05 24.22 8.55 24 8 24a2 2 0 0 0-2 2v4h1v-.45c0-.3.25-.55.55-.55h.9c.3 0 .55.25.55.55V30h1Z"/><path fill="#1C1C1C" d="M13 30h6.01v-4.62c0-.76-.62-1.38-1.38-1.38h-3.26c-.76 0-1.37.61-1.37 1.37V30ZM7.5 26h1c.28 0 .5-.22.5-.5s-.22-.5-.5-.5h-1c-.28 0-.5.22-.5.5s.22.5.5.5Z"/></svg>
